static/logos/salesforce-glyph-color.svg

<svg width="50" height="35" viewBox="0 0 50 35" fill="none" xmlns="http://www.w3.org/2000/svg">
<g clip-path="url(#clip0_1_1211)">
<mask id="mask0_1_1211" style="mask-type:alpha" maskUnits="userSpaceOnUse" x="0" y="0" width="50" height="35">
<path d="M0.0078125 0.0915833H49.8247V34.8901H0.0078125V0.0915833Z" fill="white"/>
</mask>
<g mask="url(#mask0_1_1211)">
<path fill-rule="evenodd" clip-rule="evenodd" d="M20.6931 3.9011C22.3011 2.22711 24.5392 1.19048 27.0117 1.19048C30.3084 1.19048 33.1656 3.02198 34.704 5.75092C36.0697 5.14044 37.5488 4.82526 39.0447 4.82601C44.9788 4.82601 49.7956 9.67949 49.7956 15.6685C49.7956 21.6575 44.9788 26.511 39.0447 26.511C38.3194 26.511 37.6125 26.4381 36.9202 26.3004C35.574 28.6996 33.0007 30.3297 30.0703 30.3297C28.8773 30.332 27.6995 30.0614 26.6271 29.5385C25.2626 32.7436 22.085 34.9963 18.3854 34.9963C14.5209 34.9963 11.2425 32.5604 9.97877 29.1355C9.41631 29.2542 8.84299 29.3139 8.26814 29.3136C3.67107 29.3136 -0.046875 25.5407 -0.046875 20.907C-0.046875 17.7934 1.62712 15.0828 4.11063 13.6176C3.58376 12.4039 3.31255 11.0946 3.31393 9.77143C3.31393 4.42345 7.65459 0.101105 13.0026 0.101105C16.1344 0.101105 18.9366 1.59378 20.6949 3.91063" fill="#00A1E0"/>
<path fill-rule="evenodd" clip-rule="evenodd" d="M7.21445 18.1868C7.18313 18.2685 7.22562 18.2855 7.2357 18.3C7.32929 18.3678 7.42434 18.4169 7.51958 18.472C8.02874 18.7412 8.50859 18.82 9.01042 18.82C10.0324 18.82 10.6679 18.276 10.6679 17.4006V17.3833C10.6679 16.5738 9.94998 16.2789 9.27965 16.0683L9.19192 16.0399C8.6846 15.8755 8.24687 15.7322 8.24687 15.3989V15.3819C8.24687 15.0962 8.50328 14.8855 8.89888 14.8855C9.33844 14.8855 9.86225 15.0319 10.1974 15.217C10.1974 15.217 10.2967 15.2811 10.3328 15.1854C10.3524 15.1335 10.5232 14.6762 10.5416 14.6249C10.561 14.5712 10.5269 14.5308 10.4919 14.5099C10.1073 14.2755 9.57617 14.1161 9.02672 14.1161L8.92471 14.1165C7.98881 14.1165 7.33496 14.6824 7.33496 15.4919V15.5093C7.33496 16.3628 8.05658 16.6412 8.73057 16.8335L8.83899 16.8672C9.32984 17.0181 9.75475 17.1493 9.75475 17.4936V17.5108C9.75475 17.8277 9.47819 18.0639 9.03497 18.0639C8.86262 18.0639 8.31335 18.061 7.71812 17.6848C7.64614 17.6429 7.60511 17.6126 7.54962 17.5788C7.52031 17.561 7.44705 17.5289 7.41518 17.6249L7.21372 18.1854L7.21445 18.1868ZM22.1771 18.1854C22.1458 18.267 22.1883 18.2841 22.1987 18.2985C22.2919 18.3663 22.3873 18.4154 22.4826 18.4705C22.9917 18.7397 23.4716 18.8185 23.9734 18.8185C24.9954 18.8185 25.6309 18.2745 25.6309 17.3991V17.3819C25.6309 16.5723 24.9148 16.2775 24.2427 16.0669L24.1549 16.0385C23.6476 15.874 23.2099 15.7308 23.2099 15.3974V15.3804C23.2099 15.0947 23.4663 14.8841 23.8619 14.8841C24.3014 14.8841 24.8234 15.0304 25.1604 15.2156C25.1604 15.2156 25.2597 15.2797 25.296 15.1839C25.3154 15.1321 25.4864 14.6747 25.5029 14.6234C25.5225 14.5698 25.4883 14.5293 25.4535 14.5084C25.0688 14.274 24.5377 14.1147 23.9883 14.1147L23.8861 14.115C22.9502 14.115 22.2963 14.681 22.2963 15.4905V15.5079C22.2963 16.3614 23.0179 16.6397 23.6919 16.8321L23.8002 16.8658C24.2928 17.0167 24.7159 17.1478 24.7159 17.4921V17.5093C24.7159 17.8262 24.4394 18.0625 23.9961 18.0625C23.8234 18.0625 23.2727 18.0595 22.6793 17.6833C22.6073 17.6414 22.5652 17.6125 22.5106 17.5773C22.4921 17.5656 22.4058 17.5319 22.3764 17.6234L22.1749 18.1839L22.1771 18.1854ZM32.3947 16.4696C32.3947 16.9641 32.3024 17.3542 32.1218 17.6308C31.9416 17.9037 31.6694 18.0374 31.2903 18.0374C30.9112 18.0374 30.6401 17.9048 30.4624 17.6326C30.2835 17.3579 30.1932 16.9659 30.1932 16.4714C30.1932 15.9769 30.284 15.5886 30.4624 15.3158C30.6397 15.0447 30.9093 14.9147 31.2903 14.9147C31.6712 14.9147 31.9423 15.046 32.1218 15.3158C32.3035 15.5886 32.3947 15.9769 32.3947 16.4714V16.4696ZM33.2482 15.5538C33.1641 15.27 33.0339 15.0209 32.8599 14.8121C32.6857 14.6033 32.4661 14.4348 32.2042 14.3139C31.9441 14.1921 31.6364 14.1308 31.2884 14.1308C30.9405 14.1308 30.6346 14.1925 30.3727 14.3139C30.1126 14.4355 29.891 14.6033 29.717 14.8121C29.5434 15.0209 29.413 15.27 29.3287 15.5538C29.2454 15.8359 29.2031 16.1436 29.2031 16.4714C29.2031 16.7993 29.2454 17.107 29.3287 17.389C29.4124 17.6729 29.543 17.922 29.717 18.1308C29.8912 18.3396 30.1126 18.5062 30.3727 18.6253C30.6346 18.744 30.9423 18.8044 31.2884 18.8044C31.6346 18.8044 31.9423 18.744 32.2024 18.6253C32.4624 18.5066 32.6841 18.3396 32.858 18.1308C33.0319 17.922 33.1621 17.6729 33.2463 17.389C33.3295 17.107 33.3718 16.7993 33.3718 16.4714C33.3718 16.1454 33.3295 15.8359 33.2463 15.5538H33.2482ZM40.261 17.8982C40.233 17.8152 40.152 17.8465 40.152 17.8465C40.028 17.894 39.8956 17.9379 39.7546 17.9599C39.6124 17.9822 39.4542 17.9934 39.2875 17.9934C38.8754 17.9934 38.5458 17.8705 38.3113 17.6271C38.0751 17.3835 37.9432 16.9916 37.945 16.4604C37.9463 15.9769 38.0632 15.6143 38.2729 15.3359C38.4798 15.0612 38.7985 14.9183 39.2198 14.9183C39.5714 14.9183 39.8406 14.9592 40.1227 15.0474C40.1227 15.0474 40.1895 15.0766 40.2216 14.9885C40.2965 14.7815 40.3518 14.6332 40.4322 14.406C40.4549 14.341 40.3993 14.3136 40.3789 14.3057C40.2683 14.2625 40.0071 14.1916 39.8093 14.1617C39.6243 14.1335 39.4101 14.1189 39.1683 14.1189C38.8093 14.1189 38.4906 14.1802 38.2177 14.3018C37.9449 14.4233 37.7141 14.5912 37.5309 14.8C37.3478 15.0088 37.2086 15.2579 37.1152 15.5418C37.0227 15.8238 36.976 16.1333 36.976 16.4612C36.976 17.1681 37.1665 17.7414 37.5438 18.1608C37.921 18.5821 38.4888 18.7945 39.2287 18.7945C39.6665 18.7945 40.1152 18.706 40.4375 18.5784C40.4375 18.5784 40.4991 18.5487 40.4723 18.4769L40.2617 17.8982H40.261ZM41.7544 15.9934C41.7952 15.7187 41.8705 15.4897 41.9888 15.3121C42.1659 15.041 42.4357 14.8927 42.8148 14.8927C43.1939 14.8927 43.4449 15.0418 43.6243 15.3121C43.7434 15.4907 43.7954 15.7278 43.8148 15.9934L41.7452 15.993L41.7544 15.9934ZM44.6298 15.389C44.5571 15.1161 44.3771 14.8396 44.2599 14.7132C44.0731 14.5136 43.8917 14.3725 43.7104 14.2956C43.4487 14.1843 43.167 14.1272 42.8826 14.1277C42.5218 14.1277 42.1939 14.1886 41.9284 14.3126C41.6628 14.4375 41.4394 14.6075 41.2635 14.82C41.0879 15.0324 40.9558 15.2833 40.8716 15.5709C40.7873 15.8548 40.7449 16.1661 40.7449 16.4921C40.7449 16.8255 40.789 17.135 40.8758 17.4152C40.9635 17.6973 41.1047 17.9445 41.2952 18.1496C41.4857 18.3566 41.7293 18.5178 42.0223 18.6313C42.3135 18.744 42.667 18.8024 43.0718 18.8011C43.9069 18.7984 44.3465 18.6125 44.526 18.5117C44.558 18.4938 44.5883 18.4628 44.5505 18.3736L44.3619 17.8443C44.333 17.7654 44.2531 17.794 44.2531 17.794C44.0461 17.8712 43.7531 18.0101 43.0663 18.0082C42.6176 18.0075 42.2861 17.8751 42.0773 17.6676C41.8648 17.4551 41.7586 17.1456 41.7421 16.706L44.6359 16.7082C44.6359 16.7082 44.7121 16.7075 44.7199 16.6332C44.7231 16.6024 44.819 16.0397 44.6337 15.3896L44.6298 15.389ZM18.6225 15.9934C18.6634 15.7187 18.7388 15.4897 18.8569 15.3121C19.0342 15.041 19.3038 14.8927 19.6829 14.8927C20.0621 14.8927 20.313 15.0418 20.4925 15.3121C20.6113 15.4907 20.6634 15.7278 20.683 15.9934L18.6134 15.993L18.6225 15.9934ZM21.498 15.389C21.4254 15.1161 21.2452 14.8396 21.128 14.7132C20.9412 14.5136 20.7599 14.3725 20.5786 14.2956C20.3168 14.1843 20.0352 14.1272 19.7507 14.1277C19.3899 14.1277 19.0621 14.1886 18.7965 14.3126C18.5309 14.4375 18.3075 14.6075 18.1317 14.82C17.9564 15.0324 17.824 15.2833 17.7397 15.5709C17.6557 15.8548 17.6134 16.1661 17.6134 16.4921C17.6134 16.8255 17.6571 17.135 17.7445 17.4152C17.832 17.6973 17.9734 17.9445 18.1621 18.1496C18.3525 18.3566 18.5961 18.5178 18.8892 18.6313C19.1804 18.744 19.532 18.8024 19.9386 18.8011C20.7738 18.7984 21.2134 18.6125 21.3928 18.5117C21.4247 18.4938 21.4551 18.4628 21.4172 18.3736L21.2286 17.8443C21.1994 17.7654 21.1196 17.794 21.1196 17.794C20.9126 17.8712 20.6196 18.0101 19.9328 18.0082C19.4859 18.0075 19.1525 17.8751 18.9438 17.6676C18.7313 17.4551 18.6251 17.1456 18.6086 16.706L21.5024 16.7082C21.5024 16.7082 21.5786 16.7075 21.5864 16.6332C21.5895 16.6024 21.6855 16.0397 21.5 15.3896L21.498 15.389ZM12.3771 17.8799C12.2637 17.7894 12.248 17.7672 12.2104 17.7084C12.1531 17.62 12.1238 17.4941 12.1238 17.333C12.1238 17.0802 12.208 16.8971 12.382 16.7744C12.3802 16.7747 12.6311 16.5582 13.2209 16.5656C13.4834 16.5703 13.7452 16.5926 14.0047 16.6324V17.9456H14.0051C14.0051 17.9456 13.6388 18.0245 13.2249 18.0495C12.637 18.0848 12.3769 17.8802 12.3787 17.8808L12.3771 17.8799ZM13.5273 15.8469C13.4101 15.8383 13.258 15.8341 13.0767 15.8341C12.8295 15.8341 12.5895 15.8648 12.3661 15.9253C12.1408 15.9861 11.9375 16.0802 11.7635 16.2055C11.5891 16.33 11.4456 16.4929 11.3441 16.6817C11.2417 16.8722 11.1895 17.0956 11.1895 17.3484C11.1895 17.6048 11.234 17.8264 11.322 18.0077C11.4081 18.1875 11.5378 18.343 11.6993 18.4601C11.8599 18.5769 12.0582 18.6634 12.2872 18.7147C12.5143 18.7665 12.7707 18.7927 13.0527 18.7927C13.3494 18.7927 13.6443 18.7678 13.93 18.7196C14.1734 18.6776 14.4158 18.6305 14.6571 18.5782C14.7535 18.556 14.8604 18.5269 14.8604 18.5269C14.9319 18.5088 14.9264 18.4324 14.9264 18.4324L14.9247 15.7951C14.9247 15.2163 14.7701 14.7859 14.465 14.5203C14.161 14.2548 13.7159 14.1211 13.139 14.1211C12.9229 14.1211 12.5731 14.1504 12.3643 14.1923C12.3643 14.1923 11.7342 14.3147 11.4742 14.5183C11.4742 14.5183 11.417 14.5535 11.4482 14.6332L11.6533 15.1826C11.6787 15.2538 11.7482 15.2295 11.7482 15.2295C11.7482 15.2295 11.7699 15.2209 11.7956 15.2057C12.3505 14.9035 13.0538 14.9126 13.0538 14.9126C13.3652 14.9126 13.6069 14.9758 13.7681 15.0995C13.9258 15.2205 14.0062 15.4035 14.0062 15.7881V15.9103C13.759 15.8744 13.53 15.8537 13.53 15.8537L13.5273 15.8469ZM36.7873 14.3579C36.7915 14.3482 36.7937 14.3378 36.7938 14.3273C36.7938 14.3168 36.7918 14.3064 36.7877 14.2967C36.7837 14.2869 36.7777 14.2782 36.7702 14.2708C36.7627 14.2634 36.7537 14.2577 36.7439 14.2538C36.6947 14.2352 36.4491 14.1833 36.2604 14.1716C35.8978 14.1489 35.6963 14.2101 35.515 14.2914C35.3359 14.3722 35.1377 14.502 35.0278 14.6522L35.0275 14.3006C35.0275 14.2522 34.9932 14.2132 34.9445 14.2132H34.2046C34.1566 14.2132 34.1218 14.2522 34.1218 14.3006V18.6046C34.1218 18.6278 34.1311 18.6501 34.1475 18.6666C34.164 18.683 34.1863 18.6923 34.2095 18.6923H34.9677C34.991 18.6923 35.0133 18.683 35.0297 18.6665C35.0461 18.6501 35.0553 18.6278 35.0553 18.6046V16.4434C35.0553 16.154 35.0872 15.8665 35.1507 15.6852C35.2134 15.5059 35.2985 15.3628 35.4035 15.2603C35.5036 15.1612 35.6261 15.0877 35.7606 15.046C35.8868 15.0097 36.0175 14.9914 36.1489 14.9914C36.3 14.9914 36.4657 15.0302 36.4657 15.0302C36.5214 15.0364 36.5524 15.0024 36.5712 14.9522C36.6209 14.8201 36.7617 14.4247 36.7892 14.346" fill="#FFFFFE"/>
<path fill-rule="evenodd" clip-rule="evenodd" d="M29.7064 12.3714C29.6127 12.3431 29.5173 12.3205 29.4209 12.3037C29.2911 12.282 29.1597 12.2718 29.0282 12.2733C28.5056 12.2733 28.0937 12.4209 27.8046 12.7125C27.5174 13.0018 27.322 13.4427 27.224 14.0227L27.1886 14.2185H26.5328C26.5328 14.2185 26.4527 14.2152 26.4359 14.3026L26.3282 14.9033C26.3207 14.9608 26.3454 14.9967 26.4223 14.9963H27.0608L26.413 18.6123C26.3622 18.9035 26.3042 19.143 26.2399 19.3245C26.1765 19.5037 26.1146 19.6379 26.0384 19.7354C25.9646 19.8297 25.8947 19.8991 25.774 19.9396C25.6743 19.9731 25.5597 19.9885 25.434 19.9885C25.3641 19.9885 25.271 19.9767 25.2024 19.963C25.1337 19.9495 25.098 19.9341 25.0465 19.9125C25.0465 19.9125 24.9716 19.8839 24.9421 19.959C24.9181 20.0203 24.748 20.4883 24.7278 20.5462C24.7073 20.6033 24.7361 20.6484 24.7723 20.6614C24.8573 20.6918 24.9205 20.7112 25.0362 20.7385C25.197 20.7764 25.3326 20.7788 25.4595 20.7788C25.7254 20.7788 25.9677 20.7414 26.1687 20.6689C26.3708 20.5958 26.5469 20.4685 26.7025 20.2962C26.8709 20.1103 26.9767 19.9156 27.078 19.65C27.1782 19.3868 27.2635 19.0601 27.3318 18.6793L27.9828 14.9963H28.9344C28.9344 14.9963 29.0146 14.9993 29.0313 14.9123L29.139 14.3115C29.1465 14.254 29.1219 14.2181 29.0447 14.2185H28.121C28.1256 14.1976 28.1676 13.8727 28.2736 13.5669C28.3188 13.4363 28.404 13.331 28.4762 13.2586C28.5435 13.1897 28.6265 13.1381 28.7181 13.1081C28.8185 13.077 28.9231 13.0619 29.0282 13.0634C29.1152 13.0634 29.2005 13.0738 29.2655 13.0874C29.3551 13.1064 29.3899 13.1165 29.4133 13.1234C29.5075 13.1522 29.5201 13.1244 29.5386 13.0788L29.7595 12.4722C29.7822 12.407 29.7269 12.3795 29.7064 12.3714V12.3714ZM16.7991 18.62C16.7991 18.6683 16.7646 18.7077 16.7163 18.7077H15.9502C15.9016 18.7077 15.8672 18.6683 15.8672 18.62V12.4537C15.8672 12.4055 15.9016 12.3665 15.9502 12.3665H16.7163C16.7646 12.3665 16.7991 12.4055 16.7991 12.4537V18.62" fill="#FFFFFE"/>
</g>
</g>
<defs>
<clipPath id="clip0_1_1211">
<rect width="50" height="34.9817" fill="white"/>
</clipPath>
</defs>
</svg>

<svg xmlns="http://www.w3.org/2000/svg" width="91.429" height="64" fill="none" viewBox="0 0 50 35"><g clip-path="url(#a)"><mask id="b" width="50" height="35" x="0" y="0" maskUnits="userSpaceOnUse" style="mask-type:alpha"><path fill="#fff" d="M.008.092h49.817V34.89H.008V.092Z"/></mask><g fill-rule="evenodd" clip-rule="evenodd" mask="url(#b)"><path fill="#00A1E0" d="M20.693 3.901c1.608-1.674 3.846-2.71 6.319-2.71 3.296 0 6.154 1.831 7.692 4.56a10.623 10.623 0 0 1 4.34-.925c5.935 0 10.752 4.853 10.752 10.843 0 5.988-4.817 10.842-10.751 10.842-.726 0-1.433-.073-2.125-.21C35.574 28.7 33 30.33 30.07 30.33a7.822 7.822 0 0 1-3.443-.791c-1.364 3.205-4.542 5.457-8.242 5.457a8.952 8.952 0 0 1-8.406-5.86 8.264 8.264 0 0 1-1.71.178c-4.598 0-8.316-3.773-8.316-8.407a8.448 8.448 0 0 1 4.158-7.29 9.634 9.634 0 0 1-.797-3.846c0-5.348 4.34-9.67 9.689-9.67a9.646 9.646 0 0 1 7.692 3.81"/><path fill="#FFFFFE" d="M7.214 18.187c-.03.081.012.098.022.113.093.068.188.117.284.172.509.27.989.348 1.49.348 1.022 0 1.658-.544 1.658-1.42v-.017c0-.81-.718-1.104-1.388-1.315l-.088-.028c-.507-.164-.945-.308-.945-.641v-.017c0-.286.256-.496.652-.496.44 0 .963.146 1.298.331 0 0 .1.064.136-.032l.209-.56c.019-.054-.015-.094-.05-.115a2.895 2.895 0 0 0-1.465-.394h-.102c-.936 0-1.59.566-1.59 1.376v.017c0 .854.722 1.132 1.396 1.325l.108.033c.49.151.916.282.916.627v.017c0 .317-.277.553-.72.553-.172 0-.722-.003-1.317-.38-.072-.041-.113-.071-.168-.105-.03-.018-.103-.05-.135.046l-.201.56v.002Zm14.963-.002c-.031.082.011.1.022.114.093.067.188.116.284.172.509.269.989.348 1.49.348 1.022 0 1.658-.544 1.658-1.42v-.017c0-.81-.716-1.105-1.388-1.315l-.088-.029c-.507-.164-.945-.307-.945-.64v-.018c0-.285.256-.496.652-.496.44 0 .961.146 1.298.332 0 0 .1.064.136-.032.02-.052.19-.51.207-.56.02-.054-.015-.095-.05-.116a2.895 2.895 0 0 0-1.465-.393h-.102c-.936 0-1.59.566-1.59 1.376v.017c0 .853.722 1.132 1.396 1.324l.108.034c.493.15.916.282.916.626v.017c0 .317-.277.553-.72.553a2.41 2.41 0 0 1-1.317-.379c-.072-.042-.114-.07-.168-.106-.019-.011-.105-.045-.135.046l-.201.56.002.002Zm10.218-1.715c0 .494-.093.884-.273 1.16-.18.274-.453.407-.832.407-.379 0-.65-.132-.828-.404-.178-.275-.269-.667-.269-1.162 0-.494.091-.882.27-1.155.177-.271.446-.401.827-.401.381 0 .652.131.832.4.181.274.273.662.273 1.156v-.001Zm.853-.916a2.062 2.062 0 0 0-.388-.742 1.86 1.86 0 0 0-.656-.498 2.148 2.148 0 0 0-.916-.183 2.16 2.16 0 0 0-.915.183c-.26.121-.482.29-.656.498a2.072 2.072 0 0 0-.388.742c-.084.282-.126.59-.126.917 0 .328.042.636.126.918.083.284.214.533.388.742.174.209.396.375.656.494.262.119.57.18.915.18.347 0 .654-.061.914-.18.26-.118.482-.285.656-.494.174-.209.304-.458.388-.742a3.24 3.24 0 0 0 .126-.918 3.25 3.25 0 0 0-.126-.917h.002Zm7.013 2.344c-.028-.083-.109-.052-.109-.052a1.955 1.955 0 0 1-.397.114c-.143.022-.3.033-.468.033-.412 0-.741-.122-.976-.366-.236-.243-.368-.635-.366-1.167.001-.483.118-.846.328-1.124.207-.275.525-.418.947-.418.351 0 .62.041.903.13 0 0 .067.029.099-.06.075-.207.13-.355.21-.582.023-.065-.033-.092-.053-.1a3.328 3.328 0 0 0-.57-.144 4.298 4.298 0 0 0-.64-.043c-.36 0-.678.061-.951.183a1.969 1.969 0 0 0-1.103 1.24c-.092.282-.139.591-.139.92 0 .706.19 1.28.568 1.699.377.421.945.633 1.685.633.438 0 .886-.088 1.209-.216 0 0 .061-.03.034-.101l-.21-.579h-.001Zm1.493-1.905c.041-.274.117-.503.235-.68.177-.272.447-.42.826-.42.379 0 .63.149.81.42.118.178.17.415.19.68h-2.07.01Zm2.876-.604a1.81 1.81 0 0 0-.37-.676c-.187-.2-.368-.34-.55-.417a2.106 2.106 0 0 0-.827-.168c-.361 0-.69.06-.955.185a1.902 1.902 0 0 0-.664.507 2.086 2.086 0 0 0-.392.75 3.244 3.244 0 0 0-.127.922c0 .334.044.643.13.923.089.282.23.53.42.735.19.207.434.368.727.481.291.113.645.171 1.05.17.835-.003 1.274-.188 1.454-.29.032-.017.062-.048.024-.137l-.188-.53c-.029-.079-.109-.05-.109-.05-.207.077-.5.216-1.187.214-.448 0-.78-.133-.989-.34-.212-.213-.318-.522-.335-.962l2.894.002s.076 0 .084-.075c.003-.03.099-.593-.086-1.243l-.004-.001Zm-26.008.604c.041-.274.117-.503.235-.68.177-.272.447-.42.826-.42.38 0 .63.149.81.42.118.178.17.415.19.68h-2.07.01Zm2.876-.604a1.809 1.809 0 0 0-.37-.676c-.187-.2-.368-.34-.55-.417a2.106 2.106 0 0 0-.827-.168c-.361 0-.689.06-.954.185a1.901 1.901 0 0 0-.665.507 2.092 2.092 0 0 0-.392.75 3.255 3.255 0 0 0-.127.922c0 .334.044.643.131.923.088.282.23.53.418.735.19.207.434.368.727.481.291.113.643.171 1.05.17.835-.003 1.274-.188 1.454-.29.032-.017.062-.048.024-.137l-.188-.53c-.03-.079-.11-.05-.11-.05-.206.077-.5.216-1.186.214-.447 0-.78-.133-.99-.34-.212-.213-.318-.522-.334-.962l2.893.002s.077 0 .084-.075c.004-.03.1-.593-.086-1.243l-.002-.001Zm-9.12 2.49a.565.565 0 0 1-.168-.17.69.69 0 0 1-.086-.376c0-.253.084-.436.258-.559-.002 0 .25-.216.839-.208.262.004.524.027.784.066v1.314s-.366.078-.78.103c-.588.036-.848-.169-.846-.168l-.002-.001Zm1.15-2.032a6.431 6.431 0 0 0-.451-.013c-.248 0-.488.03-.71.091-.226.061-.43.155-.604.28a1.399 1.399 0 0 0-.419.477 1.39 1.39 0 0 0-.154.666c0 .257.044.478.132.66.086.18.216.335.377.452.16.117.36.203.588.255.227.052.484.078.766.078.296 0 .591-.025.877-.073.243-.042.486-.09.727-.142.097-.022.203-.051.203-.051.072-.018.066-.095.066-.095l-.001-2.637c0-.579-.155-1.01-.46-1.275-.304-.265-.75-.399-1.326-.399-.216 0-.566.03-.775.071 0 0-.63.123-.89.326 0 0-.057.035-.026.115l.205.55c.026.07.095.046.095.046s.022-.008.048-.023c.555-.303 1.258-.293 1.258-.293.311 0 .553.063.714.187.158.12.238.303.238.688v.122c-.247-.036-.476-.056-.476-.056l-.003-.007Zm23.26-1.49a.079.079 0 0 0-.018-.086.079.079 0 0 0-.026-.017 2.547 2.547 0 0 0-.484-.082c-.362-.023-.564.038-.745.12-.18.08-.377.21-.487.36v-.351c0-.049-.035-.088-.084-.088h-.74c-.047 0-.082.04-.082.088v4.304a.088.088 0 0 0 .087.087h.759a.087.087 0 0 0 .087-.087v-2.162c0-.289.032-.577.096-.758.062-.18.147-.322.252-.425.1-.099.223-.172.358-.214.126-.036.256-.055.388-.055.151 0 .317.04.317.04.055.005.086-.029.105-.079.05-.132.19-.527.218-.606"/><path fill="#FFFFFE" d="M29.706 12.371a2.227 2.227 0 0 0-.678-.098c-.522 0-.934.148-1.223.44-.288.289-.483.73-.581 1.31l-.035.196h-.656s-.08-.004-.097.084l-.108.6c-.007.058.017.094.094.093h.639l-.648 3.616c-.05.292-.109.531-.173.713-.063.179-.125.313-.202.41a.535.535 0 0 1-.264.205c-.1.033-.214.048-.34.048-.07 0-.163-.011-.232-.025-.068-.014-.104-.029-.155-.05 0 0-.075-.03-.105.046-.024.061-.194.53-.214.587-.02.057.008.102.044.115.085.03.149.05.264.077.161.038.297.04.423.04.266 0 .509-.037.71-.11.202-.072.378-.2.534-.372.168-.186.274-.38.375-.646.1-.263.186-.59.254-.97l.65-3.684h.952s.08.003.097-.084l.108-.6c.008-.058-.017-.094-.094-.093h-.924c.005-.021.047-.346.153-.652a.838.838 0 0 1 .202-.308.598.598 0 0 1 .242-.15 1 1 0 0 1 .31-.046c.087 0 .173.01.238.024.09.02.124.03.147.036.095.03.107.001.126-.044l.22-.607c.023-.065-.032-.092-.053-.1ZM16.8 18.62c0 .048-.034.088-.083.088h-.766c-.048 0-.083-.04-.083-.088v-6.166c0-.049.035-.088.083-.088h.766c.049 0 .083.04.083.088v6.166"/></g></g><defs><clipPath id="a"><path fill="#fff" d="M0 0h50v34.982H0z"/></clipPath></defs></svg>
